client/public/assets/icons/standard/forecasts.svg

<?xml version="1.0"?><svg xmlns="http://www.w3.org/2000/svg" width="100" height="100" viewBox="0 0 100 100"><path fill="#fff" d="m77.7 29.2s-3.5-7.2-11.3-7.2-11.5 7.4-11.5 7.4c-5.2-2.5-9.9 0-9.9 0s-3.6-7.4-11.4-7.4-11.3 7.2-11.3 7.2-7.3 16.3-7.5 30.9c-0.2 14.4 9.5 17.9 14.1 17.9 5 0 16.8-2.1 16.2-18.5 0 0 1.2-2.8 4.5-2.7 4 0 5.4 2.7 5.4 2.7-0.6 16.4 11.2 18.5 16.1 18.5 4.5 0 14.3-3.5 14.1-17.9-0.2-14.6-7.5-30.9-7.5-30.9z m-47.9 42.4c-4.8 0-8.7-3.9-8.7-8.7s3.9-8.7 8.7-8.7 8.7 3.9 8.7 8.7-3.9 8.7-8.7 8.7z m40.4 0c-4.8 0-8.7-3.9-8.7-8.7s3.9-8.7 8.7-8.7 8.7 3.9 8.7 8.7-3.9 8.7-8.7 8.7z"></path></svg>

<?xml version="1.0" encoding="utf-8"?>
<!-- Generator: Adobe Illustrator 20.0.0, SVG Export Plug-In . SVG Version: 6.00 Build 0)  -->
<svg version="1.1" id="Layer_1" xmlns="http://www.w3.org/2000/svg" xmlns:xlink="http://www.w3.org/1999/xlink" x="0px" y="0px"
	 width="100px" height="100px" viewBox="0 0 100 100" enable-background="new 0 0 100 100" xml:space="preserve">
<path fill="#FFFFFF" d="M77.7,29.2c0,0-3.5-7.2-11.3-7.2s-11.5,7.4-11.5,7.4c-5.2-2.5-9.9,0-9.9,0S41.4,22,33.6,22
	s-11.3,7.2-11.3,7.2S15,45.5,14.8,60.1C14.6,74.5,24.3,78,28.9,78c5,0,16.8-2.1,16.2-18.5c0,0,1.2-2.8,4.5-2.7c4,0,5.4,2.7,5.4,2.7
	C54.4,75.9,66.2,78,71.1,78c4.5,0,14.3-3.5,14.1-17.9C85,45.5,77.7,29.2,77.7,29.2z M29.8,71.6c-4.8,0-8.7-3.9-8.7-8.7
	s3.9-8.7,8.7-8.7s8.7,3.9,8.7,8.7S34.6,71.6,29.8,71.6z M70.2,71.6c-4.8,0-8.7-3.9-8.7-8.7s3.9-8.7,8.7-8.7s8.7,3.9,8.7,8.7
	S75,71.6,70.2,71.6z"/>
</svg>
